X:143
T:Out of the Deep I Cry to Thee
%%stretchlast false
M:4/4
L:1/4
K:Bb clef=C1
"^V/vi"[D,_G,DA]2 "^vi¹"[B,,G,D] "^♭vi°¹"[A,,C_GA] | "^vi"[G,,DGB] "^V¹"[A,,CFA]/ "^viiø7"[A,,CEG]/ "^I"[B,,DF]/ "^iii7²"[A,,CDF]/ "^♭v°¹"[G,,B,=EG] | "^III"[D,A,_GA]2 "^V/vi"[D,D_GA]2 | "^vi"[G,DGB] "^V7"[F,EAc]/ "^vii°²"[E,EAc]/ "^I¹"[D,FB]/ "^Imaj7¹"[D,FAB]/ "^IV"[E,B,EG] | "^I"[B,,B,DF]/ "^Imaj7"[B,,A,DF]/ "^ii"[C,G,CE]/ "^ii7"[C,G,B,E]/ "^III"[D,_G,A,D]2 | "^V/vi"[D,_G,DA]2 "^vi¹"[B,,G,D] "^♭vi°¹"[A,,C_GA] | "^vi"[G,,DGB] "^V¹"[A,,CFA]/ "^viiø7"[A,,CEG]/ "^I"[B,,DF]/ "^iii7²"[A,,CDF]/ "^♭v°¹"[G,,B,=EG] | "^III"[D,A,_GA]2 "^V/vi"[D,D_GA]2 | "^vi"[G,DGB] "^V7"[F,EAc]/ "^vii°²"[E,EAc]/ "^I¹"[D,FB]/ "^Imaj7¹"[D,FAB]/ "^IV"[E,B,EG] | "^I"[B,,B,DF]/ "^Imaj7"[B,,A,DF]/ "^ii"[C,G,CE]/ "^ii7"[C,G,B,E]/ "^V/vi"[D,_G,A,D]2 | "^vi"[G,B,DG]2 "^V¹"[A,CF] "^vi"[G,B,DB]/ "^♭v°¹"[G,B,=EB]/ | "^V"[F,CFA] "^ii¹"[E,CG]/ "^vi"[D,DG]/ "^vii°¹"[C,EAc]/ "^ii7"[C,EGB]/ "^V/vi"[D,A,_GA] | "^vi"[G,,B,DG]2 [G,DGB]2 | "^iii"[D,DFA] "^I"[C,DFB]/ [B,,DFB]/ "^V¹"[A,,CFc]/ [A,,CEc]/ "^I"[B,,B,DF] | "^vii¹"[C,=E,CA]/ "^V²"[C,F,CA]/ "^vi"[C,F,B,G]/ "^ii7"[C,E,B,G]/ "^V"[F,,F,A,F]2 | "^I"[B,,F,DF]2 "^vi"[G,,G,DB] "^III"[D,_G,DA]/ "^III7"[D,_G,CA]/ | "^IV"[E,G,B,G] "^I"[B,,F,B,D] "^v¹"[_A,,F,CF] "^ii²"[G,,G,CE] | "^III7¹"[_G,,A,CD] "^vi"[G,,G,B,D] "^III"[D,_G,A,D]2 |]
